images/svg/Offer-of-possession.svg

<svg width="150" height="150" viewBox="0 0 150 150" fill="none" xmlns="http://www.w3.org/2000/svg">
<path d="M133.291 75C133.291 77.74 129.831 80.2 129.451 82.83C129.071 85.46 131.701 88.83 130.951 91.43C130.201 94.03 126.161 95.43 125.051 97.85C123.941 100.27 125.501 104.26 124.051 106.52C122.601 108.78 118.341 108.99 116.581 111.02C114.821 113.05 115.221 117.29 113.181 119.02C111.141 120.75 107.021 119.78 104.751 121.24C102.481 122.7 101.751 126.87 99.2309 128C96.7109 129.13 93.1209 127 90.5109 127.75C87.9009 128.5 86.0109 132.28 83.3109 132.67C80.6109 133.06 77.7409 130 75.0009 130C72.2609 130 69.3409 133.08 66.7009 132.71C64.0609 132.34 62.0609 128.54 59.5009 127.79C56.9409 127.04 53.2109 129.15 50.7809 128.04C48.3509 126.93 47.5209 122.73 45.2609 121.28C43.0009 119.83 38.8609 120.82 36.8209 119.06C34.7809 117.3 35.2009 113.06 33.4309 111.06C31.6609 109.06 27.4309 108.83 25.9509 106.56C24.4709 104.29 26.0809 100.36 24.9509 97.89C23.8209 95.42 19.8209 94.07 19.0509 91.47C18.2809 88.87 20.9309 85.57 20.5509 82.87C20.1709 80.17 16.7109 77.74 16.7109 75C16.7109 72.26 20.1709 69.8 20.5509 67.17C20.9309 64.54 18.3009 61.17 19.0509 58.57C19.8009 55.97 23.8409 54.57 24.9509 52.15C26.0609 49.73 24.5009 45.74 25.9509 43.48C27.4009 41.22 31.6709 41 33.4309 39C35.1909 37 34.7909 32.73 36.8309 31C38.8709 29.27 42.9909 30.24 45.2609 28.78C47.5309 27.32 48.3109 23.15 50.7809 22.02C53.2509 20.89 56.8909 23.02 59.5009 22.27C62.1109 21.52 64.0009 17.74 66.7009 17.35C69.4009 16.96 72.2609 20 75.0009 20C77.7409 20 80.6609 16.92 83.3009 17.29C85.9409 17.66 87.9409 21.46 90.5009 22.21C93.0609 22.96 96.7909 20.85 99.2209 21.96C101.651 23.07 102.481 27.27 104.741 28.72C107.001 30.17 111.141 29.18 113.181 30.94C115.221 32.7 114.801 36.94 116.571 38.94C118.341 40.94 122.571 41.17 124.051 43.44C125.531 45.71 123.921 49.64 125.051 52.11C126.181 54.58 130.181 55.93 130.951 58.53C131.721 61.13 129.071 64.43 129.451 67.13C129.831 69.83 133.291 72.26 133.291 75Z" stroke="#515151" stroke-width="2" stroke-linecap="round" stroke-linejoin="round"/>
<path d="M74.9987 113.53C96.2783 113.53 113.529 96.2795 113.529 75C113.529 53.7204 96.2783 36.47 74.9987 36.47C53.7192 36.47 36.4688 53.7204 36.4688 75C36.4688 96.2795 53.7192 113.53 74.9987 113.53Z" fill="#F6883E" stroke="#F6883E" stroke-width="2" stroke-linecap="round" stroke-linejoin="round"/>
<path d="M94.9508 73.62L75.0008 58.49L55.0508 73.62V99.79H94.9508V73.62Z" stroke="white" stroke-width="2" stroke-miterlimit="10"/>
<path d="M80.0492 99.79V85.65H69.9492V99.79" stroke="white" stroke-width="2" stroke-miterlimit="10"/>
<path d="M49.9219 70.3901L75.0019 50.4301L86.3119 60.1201L94.1019 66.7901L100.082 71.9101" stroke="white" stroke-width="2" stroke-miterlimit="10" stroke-linecap="round"/>
<path d="M88.3906 61.9V51.96" stroke="white" stroke-width="2" stroke-miterlimit="10" stroke-linecap="round"/>
</svg>

<svg id="Layer_1" data-name="Layer 1" xmlns="http://www.w3.org/2000/svg" viewBox="0 0 150 150"><defs><style>.cls-1,.cls-3,.cls-4{fill:none;}.cls-1{stroke:#595959;}.cls-1,.cls-2,.cls-4{stroke-linecap:round;}.cls-1,.cls-2{stroke-linejoin:round;}.cls-1,.cls-2,.cls-3,.cls-4{stroke-width:2px;}.cls-2{fill:#a26e4d;stroke:#a26e4d;}.cls-3,.cls-4{stroke:#fff;stroke-miterlimit:10;}</style></defs><path class="cls-1" d="M133.29,75c0,2.74-3.46,5.2-3.84,7.83s2.25,6,1.5,8.6-4.79,4-5.9,6.42.45,6.41-1,8.67-5.71,2.47-7.47,4.5-1.36,6.27-3.4,8-6.16.76-8.43,2.22-3,5.63-5.52,6.76-6.11-1-8.72-.25-4.5,4.53-7.2,4.92S77.74,130,75,130s-5.66,3.08-8.3,2.71-4.64-4.17-7.2-4.92-6.29,1.36-8.72.25-3.26-5.31-5.52-6.76-6.4-.46-8.44-2.22-1.62-6-3.39-8-6-2.23-7.48-4.5.13-6.2-1-8.67-5.13-3.82-5.9-6.42,1.88-5.9,1.5-8.6S16.71,77.74,16.71,75s3.46-5.2,3.84-7.83-2.25-6-1.5-8.6,4.79-4,5.9-6.42-.45-6.41,1-8.67S31.67,41,33.43,39s1.36-6.27,3.4-8,6.16-.76,8.43-2.22,3.05-5.63,5.52-6.76,6.11,1,8.72.25,4.5-4.53,7.2-4.92S72.26,20,75,20s5.66-3.08,8.3-2.71,4.64,4.17,7.2,4.92,6.29-1.36,8.72-.25,3.26,5.31,5.52,6.76,6.4.46,8.44,2.22,1.62,6,3.39,8,6,2.23,7.48,4.5-.13,6.2,1,8.67,5.13,3.82,5.9,6.42-1.88,5.9-1.5,8.6S133.29,72.26,133.29,75Z"/><circle class="cls-2" cx="75" cy="75" r="38.53"/><polygon class="cls-3" points="94.95 73.62 75 58.49 55.05 73.62 55.05 99.79 94.95 99.79 94.95 73.62"/><polyline class="cls-3" points="80.05 99.79 80.05 85.65 69.95 85.65 69.95 99.79"/><polyline class="cls-4" points="49.92 70.39 75 50.43 86.31 60.12 94.1 66.79 100.08 71.91"/><line class="cls-4" x1="88.39" y1="61.9" x2="88.39" y2="51.96"/></svg>
